icons/license.svg

<svg width="24" height="24" viewBox="0 0 24 24" fill="none" xmlns="http://www.w3.org/2000/svg">
<path d="M19 21C17.8954 21 17 20.1046 17 19V18H3V19C3 20.1046 3.89543 21 5 21H19ZM19 21C20.1046 21 21 20.1046 21 19V3H5V14" stroke="#1E293B" stroke-width="2" stroke-linecap="round" stroke-linejoin="round"/>
</svg>

<svg
  width="24"
  height="24"
  viewBox="0 0 24 24"
  xmlns="http://www.w3.org/2000/svg"
  fill="none"
  stroke="currentColor"
  stroke-width="2"
  stroke-linecap="round"
  stroke-linejoin="round"
>
  <path d="M19 21a2 2 0 0 1-2-2v-1H3v1a2 2 0 0 0 2 2h14zm0 0a2 2 0 0 0 2-2V3H5v11" />
</svg>
